Numix-Circle/48x48/apps/doomseeker.svg

<?xml version="1.0" encoding="UTF-8" standalone="no"?>
<svg
   xmlns:dc="http://purl.org/dc/elements/1.1/"
   xmlns:cc="http://creativecommons.org/ns#"
   xmlns:rdf="http://www.w3.org/1999/02/22-rdf-syntax-ns#"
   xmlns:svg="http://www.w3.org/2000/svg"
   xmlns="http://www.w3.org/2000/svg"
   xmlns:xlink="http://www.w3.org/1999/xlink"
   xmlns:sodipodi="http://sodipodi.sourceforge.net/DTD/sodipodi-0.dtd"
   xmlns:inkscape="http://www.inkscape.org/namespaces/inkscape"
   width="48"
   viewBox="0 0 13.546667 13.546667"
   height="48"
   id="svg2"
   version="1.1"
   inkscape:version="0.91 r13725"
   sodipodi:docname="doomseeker.svg"
   inkscape:export-filename="/home/nerdtaco/Desktop/doomseeker.png"
   inkscape:export-xdpi="91.914894"
   inkscape:export-ydpi="91.914894">
  <metadata
     id="metadata331">
    <rdf:RDF>
      <cc:Work
         rdf:about="">
        <dc:format>image/svg+xml</dc:format>
        <dc:type
           rdf:resource="http://purl.org/dc/dcmitype/StillImage" />
        <dc:title />
      </cc:Work>
    </rdf:RDF>
  </metadata>
  <sodipodi:namedview
     pagecolor="#ffffff"
     bordercolor="#666666"
     borderopacity="1"
     objecttolerance="10"
     gridtolerance="10"
     guidetolerance="10"
     inkscape:pageopacity="0"
     inkscape:pageshadow="2"
     inkscape:window-width="1366"
     inkscape:window-height="710"
     id="namedview329"
     showgrid="false"
     inkscape:zoom="8.2975"
     inkscape:cx="14.517489"
     inkscape:cy="27.360051"
     inkscape:window-x="0"
     inkscape:window-y="29"
     inkscape:window-maximized="1"
     inkscape:current-layer="layer3"
     inkscape:object-nodes="true"
     inkscape:snap-smooth-nodes="true">
    <inkscape:grid
       type="xygrid"
       id="grid3308" />
  </sodipodi:namedview>
  <defs
     id="defs4">
    <linearGradient
       id="linearGradient3764"
       x1="1"
       x2="47"
       gradientUnits="userSpaceOnUse"
       gradientTransform="matrix(0,-1,1,0,-1.5e-6,47.999998)">
      <stop
         stop-color="#3d3d3d"
         stop-opacity="1"
         id="stop7-7" />
      <stop
         offset="1"
         stop-color="#474747"
         stop-opacity="1"
         id="stop9-9" />
    </linearGradient>
    <linearGradient
       x2="47"
       x1="1"
       gradientTransform="matrix(0,-1,1,0,-1.5e-6,47.999998)"
       gradientUnits="userSpaceOnUse"
       id="linearGradient3027"
       xlink:href="#linearGradient3764"
       inkscape:collect="always" />
  </defs>
  <g
     inkscape:groupmode="layer"
     id="layer1"
     inkscape:label="Shadow"
     sodipodi:insensitive="true">
    <path
       style="opacity:0.05;fill:#000000;fill-opacity:1;stroke:none"
       d="M 25,2 C 12.297451,2 2,12.297451 2,25 2,31.367153 4.6007106,37.116628 8.78125,41.28125 12.865755,44.99361 18.29568,47.25 24.25,47.25 c 12.702549,0 23,-10.297451 23,-23 0,-5.95432 -2.25639,-11.384245 -5.96875,-15.46875 C 37.116628,4.6007105 31.367153,2 25,2 z M 41.28125,8.78125 C 45.135604,12.894061 47.5,18.418655 47.5,24.5 c 0,12.702549 -10.297451,23 -23,23 C 18.418655,47.5 12.894061,45.135604 8.78125,41.28125 12.940939,45.4251 18.664604,48 25,48 37.702549,48 48,37.702549 48,25 48,18.664604 45.4251,12.940939 41.28125,8.78125 z"
       transform="scale(0.28222223,0.28222223)"
       id="path3978"
       inkscape:connector-curvature="0" />
    <path
       style="opacity:0.1;fill:#000000;fill-opacity:1;stroke:none"
       d="M 41.28125,8.78125 C 44.99361,12.865755 47.25,18.29568 47.25,24.25 c 0,12.702549 -10.297451,23 -23,23 -5.95432,0 -11.384245,-2.25639 -15.46875,-5.96875 C 12.894061,45.135604 18.418655,47.5 24.5,47.5 c 12.702549,0 23,-10.297451 23,-23 0,-6.081345 -2.364396,-11.605939 -6.21875,-15.71875 z"
       transform="scale(0.28222223,0.28222223)"
       id="path3976"
       inkscape:connector-curvature="0" />
    <path
       transform="matrix(4.3274074,0,0,3.2455556,117.19278,-35.348334)"
       d="m -24,13 a 1.5,2 0 1 1 -3,0 1.5,2 0 1 1 3,0 z"
       sodipodi:ry="2"
       sodipodi:rx="1.5"
       sodipodi:cy="13"
       sodipodi:cx="-25.5"
       id="path3952"
       style="opacity:0.2;fill:#000000;fill-opacity:1;stroke:none"
       sodipodi:type="arc" />
  </g>
  <g
     inkscape:groupmode="layer"
     id="layer2"
     inkscape:label="Base">
    <g
       transform="scale(0.28222223,0.28222223)"
       id="g29">
      <path
         style="fill:url(#linearGradient3027);fill-opacity:1"
         inkscape:connector-curvature="0"
         d="M 24,1 C 36.703,1 47,11.297 47,24 47,36.703 36.703,47 24,47 11.297,47 1,36.703 1,24 1,11.297 11.297,1 24,1 z"
         id="path31" />
    </g>
    <path
       style="opacity:0.1;fill:#000000;fill-opacity:1;stroke:none"
       d="M 40.03125 7.53125 C 43.74361 11.615755 46 17.04568 46 23 C 46 35.702549 35.702549 46 23 46 C 17.04568 46 11.615755 43.74361 7.53125 40.03125 C 11.709416 44.322508 17.537578 47 24 47 C 36.702549 47 47 36.702549 47 24 C 47 17.537578 44.322508 11.709416 40.03125 7.53125 z "
       id="path4027"
       transform="scale(0.28222223,0.28222223)" />
  </g>
  <g
     inkscape:groupmode="layer"
     id="layer3"
     inkscape:label="Symbol">
    <g
       id="g5313">
      <g
         id="g5323">
        <g
           id="g5327"
           transform="translate(-0.28222222,0.56444444)">
          <g
             id="g5331">
            <path
               sodipodi:nodetypes="scscsccssssccccc"
               inkscape:connector-curvature="0"
               id="path5343"
               d="m 4.5155555,3.6688889 c -0.2822222,0 -0.5644444,0.2822222 -0.5644444,0.5644444 l 0,0.8466667 c 0,0.1542008 0.152072,0.2822222 0.2822222,0.2822222 -0.1542009,0 -0.2822222,0.152072 -0.2822222,0.2822222 l 0,3.1044444 c 0,0.2822222 0.2822222,0.5644445 0.5644444,0.5644445 l 4.2333333,0 c 1.4147062,0 2.5400002,-1.4111111 2.5400002,-2.8222222 C 11.288889,5.08 10.16,3.6688889 8.7488888,3.6688889 Z m 1.9755556,1.9755555 1.6933333,0 0,1.6933333 -1.6933333,0 z"
               style="fill:#000000;fill-opacity:0.10196078" />
            <path
               style="fill:#e6e6e6"
               d="m 15,12 c -1,0 -2,1 -2,2 l 0,3 c 0,0.546381 0.538838,1 1,1 -0.546381,0 -1,0.538838 -1,1 l 0,11 c 0,1 1,2 2,2 l 15,0 c 5.012739,0 9.000001,-5 9.000001,-10 C 39.000001,17 35,12 30,12 Z m 7,7 6,0 0,6 -6,0 z"
               transform="scale(0.28222222,0.28222222)"
               id="path4112"
               inkscape:connector-curvature="0"
               sodipodi:nodetypes="scscsccssssccccc" />
            <path
               id="path5311"
               transform="scale(0.28222222,0.28222222)"
               d="m 15,14 0,3 13,0 c 1,0 2,1 2,2 l 0,6 c 0,1 -1,2 -2,2 l -8,0 0,-8 -5,0 0,11 15,0 c 4,0 7.000001,-4 7.000001,-8 C 37.000001,18 34,14 30,14 Z"
               style="fill:#ff2a2a"
               inkscape:connector-curvature="0"
               sodipodi:nodetypes="cccccccccccccc" />
          </g>
        </g>
      </g>
    </g>
  </g>
</svg>

<svg xmlns="http://www.w3.org/2000/svg" width="48" viewBox="0 0 13.546667 13.546667" height="48">
 <defs>
  <linearGradient x2="47" x1="1" gradientTransform="matrix(0,-1,1,0,-1.5e-6,47.999998)" gradientUnits="userSpaceOnUse" id="linearGradient3027">
   <stop style="stop-color:#3d3d3d;stop-opacity:1"/>
   <stop offset="1" style="stop-color:#474747;stop-opacity:1"/>
  </linearGradient>
 </defs>
 <g>
  <path d="m 25 2 c -12.703 0 -23 10.297 -23 23 0 6.367 2.601 12.12 6.781 16.281 4.085 3.712 9.514 5.969 15.469 5.969 c 12.703 0 23 -10.297 23 -23 0 -5.954 -2.256 -11.384 -5.969 -15.469 c -4.165 -4.181 -9.914 -6.781 -16.281 -6.781 z m 16.281 6.781 c 3.854 4.113 6.219 9.637 6.219 15.719 c 0 12.703 -10.297 23 -23 23 c -6.081 0 -11.606 -2.364 -15.719 -6.219 4.16 4.144 9.883 6.719 16.219 6.719 12.703 0 23 -10.297 23 -23 0 -6.335 -2.575 -12.06 -6.719 -16.219 z" transform="scale(0.28222223,0.28222223)" style="fill:#000;opacity:0.05;fill-opacity:1;stroke:none"/>
  <path d="m 41.28 8.781 c 3.712 4.085 5.969 9.514 5.969 15.469 c 0 12.703 -10.297 23 -23 23 -5.954 0 -11.384 -2.256 -15.469 -5.969 c 4.113 3.854 9.637 6.219 15.719 6.219 c 12.703 0 23 -10.297 23 -23 0 -6.081 -2.364 -11.606 -6.219 -15.719 z" transform="scale(0.28222223,0.28222223)" style="fill:#000;opacity:0.1;fill-opacity:1;stroke:none"/>
  <path transform="matrix(4.3274074,0,0,3.2455556,117.19278,-35.348334)" d="m -24 13 a 1.5 2 0 1 1 -3 0 1.5 2 0 1 1 3 0 z" style="fill:#000;opacity:0.2;fill-opacity:1;stroke:none"/>
 </g>
 <g>
  <g transform="scale(0.28222223,0.28222223)">
   <path d="M 24,1 C 36.703,1 47,11.297 47,24 47,36.703 36.703,47 24,47 11.297,47 1,36.703 1,24 1,11.297 11.297,1 24,1 z" style="fill:url(#linearGradient3027);fill-opacity:1"/>
  </g>
  <path d="m 40.03 7.531 c 3.712 4.085 5.969 9.514 5.969 15.469 c 0 12.703 -10.297 23 -23 23 c -5.954 0 -11.384 -2.256 -15.469 -5.969 c 4.178 4.291 10.01 6.969 16.469 6.969 c 12.703 0 23 -10.297 23 -23 c 0 -6.462 -2.677 -12.291 -6.969 -16.469 z" transform="scale(0.28222223,0.28222223)" style="fill:#000;opacity:0.1;fill-opacity:1;stroke:none"/>
 </g>
 <g>
  <g>
   <g>
    <g transform="translate(-0.28222222,0.56444444)">
     <g>
      <path d="m 4.516 3.669 c -0.282 0 -0.564 0.282 -0.564 0.564 l 0 0.847 c 0 0.154 0.152 0.282 0.282 0.282 -0.154 0 -0.282 0.152 -0.282 0.282 l 0 3.104 c 0 0.282 0.282 0.564 0.564 0.564 l 4.233 0 c 1.415 0 2.54 -1.411 2.54 -2.822 c 0 -1.411 -1.129 -2.822 -2.54 -2.822 m -2.258 1.976 1.693 0 0 1.693 -1.693 0 z" style="fill:#000;fill-opacity:0.102"/>
      <path d="m 15 12 c -1 0 -2 1 -2 2 l 0 3 c 0 0.546 0.539 1 1 1 -0.546 0 -1 0.539 -1 1 l 0 11 c 0 1 1 2 2 2 l 15 0 c 5.01 0 9 -5 9 -10 c 0 -5 -4 -10 -9 -10 m -8 7 6 0 0 6 -6 0 z" transform="scale(0.28222222,0.28222222)" style="fill:#e6e6e6"/>
      <path transform="scale(0.28222222,0.28222222)" d="m 15 14 0 3 13 0 c 1 0 2 1 2 2 l 0 6 c 0 1 -1 2 -2 2 l -8 0 0 -8 -5 0 0 11 15 0 c 4 0 7 -4 7 -8 c 0 -4 -3 -8 -7 -8" style="fill:#f94133;fill-opacity:1"/>
     </g>
    </g>
   </g>
  </g>
 </g>
</svg>
